src/img/download-bg.svg

<svg width="1440" height="236" viewBox="0 0 1440 236" fill="none" xmlns="http://www.w3.org/2000/svg">
<circle r="48.8049" transform="matrix(-1 0 0 1 1360.8 115.805)" fill="#FFD771"/>
<circle r="9.87317" transform="matrix(-1 0 0 1 34.7708 87.7707)" stroke="#FFD771" stroke-width="1.79512"/>
<circle cx="1197.73" cy="98.73" r="13.1023" stroke="#FFD771" stroke-width="1.25531"/>
<path fill-rule="evenodd" clip-rule="evenodd" d="M0 99L24 109.213C48 119.427 96 139.501 144 159.928C192 180.355 240 200.429 288 197.964C336 195.499 384 170.141 432 164.859C480 159.928 528 175.072 576 170.141C624 164.859 672 139.501 720 142.319C768 144.784 816 175.072 864 175.072C912 175.072 960 144.784 1008 126.823C1056 109.213 1104 104.283 1152 101.465C1200 99 1248 99 1296 106.748C1344 114.144 1392 129.64 1416 137.036L1440 144.784V236H1416C1392 236 1344 236 1296 236C1248 236 1200 236 1152 236C1104 236 1056 236 1008 236C960 236 912 236 864 236C816 236 768 236 720 236C672 236 624 236 576 236C528 236 480 236 432 236C384 236 336 236 288 236C240 236 192 236 144 236C96 236 48 236 24 236H0V99Z" fill="#B8E5E8"/>
<circle r="20" transform="matrix(-1 0 0 1 229 129)" fill="#FFD771"/>
<path d="M73.2832 190.705L33.3208 213.777L33.3208 167.632L73.2832 190.705Z" fill="#41D2CA"/>
<path d="M122.046 190.705L65.4889 223.358V158.051L122.046 190.705Z" fill="#07878E"/>
<circle cx="1396.73" cy="73.73" r="13.1023" stroke="#FFD771" stroke-width="1.25531"/>
<circle cx="63.5319" cy="59.5319" r="7.53188" fill="#FFD771"/>
<path d="M189.22 99.0155L173.305 108.204V89.8272L189.22 99.0155Z" fill="#41D2CA"/>
<path d="M208.642 99.0155L186.118 112.019V86.0117L208.642 99.0155Z" fill="#07878E"/>
<path d="M1285.36 43.4181L1239.34 69.9868V16.8494L1285.36 43.4181Z" fill="#41D2CA"/>
<path d="M1341.51 43.4184L1276.38 81.0198V5.81696L1341.51 43.4184Z" fill="#07878E"/>
<circle cx="989.532" cy="104.532" r="7.53188" fill="#FFD771"/>
<circle cx="296.001" cy="95.0013" r="3.37365" stroke="#FFD771" stroke-width="1.25531"/>
<circle cx="1010" cy="74.0013" r="3.37365" fill="#FFD771" stroke="#FFD771" stroke-width="1.25531"/>
</svg>

<svg xmlns="http://www.w3.org/2000/svg" width="1440" height="236" fill="none"><circle r="48.805" fill="#FFD771" transform="matrix(-1 0 0 1 1360.8 115.805)"/><circle r="9.873" stroke="#FFD771" stroke-width="1.795" transform="matrix(-1 0 0 1 34.77 87.77)"/><circle cx="1197.73" cy="98.73" r="13.102" stroke="#FFD771" stroke-width="1.255"/><path fill="#B8E5E8" fill-rule="evenodd" d="m0 99 24 10.213c24 10.214 72 30.288 120 50.715 48 20.427 96 40.501 144 38.036 48-2.465 96-27.823 144-33.105 48-4.931 96 10.213 144 5.282 48-5.282 96-30.64 144-27.822 48 2.465 96 32.753 144 32.753s96-30.288 144-48.249c48-17.61 96-22.54 144-25.358 48-2.465 96-2.465 144 5.283 48 7.396 96 22.892 120 30.288l24 7.748V236H0V99Z" clip-rule="evenodd"/><circle r="20" fill="#FFD771" transform="matrix(-1 0 0 1 229 129)"/><path fill="#41D2CA" d="m73.283 190.705-39.962 23.072v-46.145l39.962 23.073Z"/><path fill="#07878E" d="m122.046 190.705-56.557 32.653v-65.307l56.557 32.654Z"/><circle cx="1396.73" cy="73.73" r="13.102" stroke="#FFD771" stroke-width="1.255"/><circle cx="63.532" cy="59.532" r="7.532" fill="#FFD771"/><path fill="#41D2CA" d="m189.22 99.016-15.915 9.188V89.827l15.915 9.189Z"/><path fill="#07878E" d="m208.642 99.016-22.524 13.003V86.012l22.524 13.004Z"/><path fill="#41D2CA" d="m1285.36 43.418-46.02 26.569V16.849l46.02 26.57Z"/><path fill="#07878E" d="m1341.51 43.418-65.13 37.602V5.817l65.13 37.601Z"/><circle cx="989.532" cy="104.532" r="7.532" fill="#FFD771"/><circle cx="296.001" cy="95.001" r="3.374" stroke="#FFD771" stroke-width="1.255"/><circle cx="1010" cy="74.001" r="3.374" fill="#FFD771" stroke="#FFD771" stroke-width="1.255"/></svg>
